src/assets/outline/MusicPlay.svg

<svg width="24" height="24" viewBox="0 0 24 24"  xmlns="http://www.w3.org/2000/svg">
<path d="M5.58994 22.6998C3.24994 22.6998 1.26993 20.7198 1.26993 18.3798V12.2198C1.20993 9.30979 2.29995 6.55981 4.31995 4.48981C6.33995 2.42981 9.05994 1.2998 11.9699 1.2998C17.9299 1.2998 22.7699 6.1498 22.7699 12.1098V18.2698C22.7699 20.6498 20.83 22.5898 18.45 22.5898C16.07 22.5898 14.1299 20.6498 14.1299 18.2698V15.4598C14.1299 14.0298 15.2899 12.8698 16.7199 12.8698C18.1499 12.8698 19.3099 14.0298 19.3099 15.4598V18.4898C19.3099 18.8998 18.9699 19.2398 18.5599 19.2398C18.1499 19.2398 17.8099 18.8998 17.8099 18.4898V15.4598C17.8099 14.7798 17.2599 14.3698 16.7199 14.3698C16.0399 14.3698 15.6299 14.9198 15.6299 15.4598V18.2698C15.6299 19.7998 16.92 21.0898 18.45 21.0898C19.98 21.0898 21.2699 19.7998 21.2699 18.2698V12.1098C21.2699 6.9798 17.0999 2.7998 11.9699 2.7998C9.45994 2.7998 7.12996 3.76979 5.38996 5.53979C3.64996 7.30979 2.71993 9.67983 2.76993 12.1998V18.3698C2.76993 19.8998 4.05994 21.1898 5.58994 21.1898C7.11994 21.1898 8.40994 19.8998 8.40994 18.3698V15.5598C8.40994 14.8798 7.85995 14.4698 7.31995 14.4698C6.63995 14.4698 6.22995 15.0198 6.22995 15.5598V18.4798C6.22995 18.8898 5.88995 19.2298 5.47995 19.2298C5.06995 19.2298 4.72995 18.8898 4.72995 18.4798V15.5598C4.72995 14.1098 5.86995 12.9698 7.31995 12.9698C8.74995 12.9698 9.90994 14.1298 9.90994 15.5598V18.3698C9.90994 20.7598 7.96994 22.6998 5.58994 22.6998Z" />
<path d="M13.1797 11.8604C12.7797 11.8604 12.4197 11.6404 12.2497 11.2804L10.7997 8.39038L10.3797 9.17035C10.1497 9.60035 9.68974 9.87036 9.19974 9.87036H8.46973C8.05973 9.87036 7.71973 9.53036 7.71973 9.12036C7.71973 8.71036 8.05973 8.37036 8.46973 8.37036H9.10971L9.89972 6.91034C10.0897 6.57034 10.4397 6.39035 10.8297 6.36035C11.2197 6.36035 11.5697 6.59036 11.7497 6.93036L13.1797 9.79034L13.5197 9.10034C13.7497 8.64034 14.1997 8.36035 14.7197 8.36035H15.5297C15.9397 8.36035 16.2797 8.70035 16.2797 9.11035C16.2797 9.52035 15.9397 9.86035 15.5297 9.86035H14.8197L14.1097 11.2704C13.9297 11.6404 13.5797 11.8604 13.1797 11.8604Z" />
</svg>

<?xml version="1.0" encoding="UTF-8"?>
<svg width="24" height="24" viewBox="0 0 24 24" xmlns="http://www.w3.org/2000/svg">
 <path d="m5.5899 22.7c-2.34 0-4.32-1.98-4.32-4.32v-6.16c-0.06-2.91 1.03-5.66 3.05-7.73 2.02-2.06 4.74-3.19 7.65-3.19 5.96 0 10.8 4.85 10.8 10.81v6.16c0 2.38-1.9399 4.32-4.3199 4.32s-4.3201-1.94-4.3201-4.32v-2.81c0-1.43 1.16-2.59 2.59-2.59s2.59 1.16 2.59 2.59v3.03c0 0.41-0.34 0.75-0.75 0.75s-0.75-0.34-0.75-0.75v-3.03c0-0.68-0.55-1.09-1.09-1.09-0.68 0-1.09 0.55-1.09 1.09v2.81c0 1.53 1.2901 2.82 2.8201 2.82s2.8199-1.29 2.8199-2.82v-6.16c0-5.13-4.17-9.31-9.3-9.31-2.51 0-4.8399 0.96999-6.5799 2.74s-2.67 4.14-2.62 6.66v6.17c0 1.53 1.29 2.82 2.82 2.82s2.82-1.29 2.82-2.82v-2.81c0-0.68-0.54999-1.09-1.09-1.09-0.68 0-1.09 0.55-1.09 1.09v2.92c0 0.41-0.34 0.75-0.75 0.75s-0.75-0.34-0.75-0.75v-2.92c0-1.45 1.14-2.59 2.59-2.59 1.43 0 2.59 1.16 2.59 2.59v2.81c0 2.39-1.94 4.33-4.32 4.33z"/>
 <path d="m13.18 11.86c-0.4 0-0.76-0.22-0.93-0.58l-1.45-2.89-0.42 0.77997c-0.23 0.43-0.68996 0.70001-1.18 0.70001h-0.73001c-0.41 0-0.75-0.34-0.75-0.75s0.34-0.75 0.75-0.75h0.63998l0.79001-1.46c0.18998-0.34 0.53998-0.51999 0.92998-0.54999 0.39 0 0.74 0.23001 0.92 0.57001l1.43 2.86 0.34-0.69c0.23-0.46 0.68-0.73999 1.2-0.73999h0.81c0.41 0 0.75 0.34 0.75 0.75s-0.34 0.75-0.75 0.75h-0.71l-0.71 1.41c-0.18 0.37-0.53 0.59-0.93 0.59z"/>
</svg>
